X:391
T:Hungry Rock, The
R:jig
D:Ash Plant: Ashplant
Z:hn-jig-391
M:6/8
L:1/8
K:Dmix
~A3 =cAG | ABc A2B | ADD FED | ~G3 EFG |
~A3 =cAG | AGA d2e | fed ed^c |1 Add =cAG :|2 AB^c d2e ||
|: ~f3 fed | efg e^cA | ~d3 d^cd | e^cA ecA |
~f3 fed | efg efg | f/g/af ge^c |1 ed^c d2e :|2 ed^c d2B ||
